X: 29994
T: Ode To Joy
R: jig
M: 6/8
K: Gmajor
"G"B2B c2d|"C"cdc B2A|1 "G"G2G A2B|B2A "D"A3:|2 "G" G2G GAB|"D"ABA "G"G3||
|:"D"A2A "G"B2G|"D"ABc "G"B2G|"D"ABc "G"dBA|FGA "D"D3|
"G"B2B c2d|"C" d2c B2A|"G" G2G A2B|"D"ABA "G"G3:|

